!!! OTL: Berkowitz421
!!! Chapter: 1
!!! Section: IV
!!! Page: 105
!!! Mode: 
!!! Encoder: DJB
**kern
*staff1
*I"Piano
=1-
*clefC3
*k[f#c#g#]
*f#:
*M2/4
4r
8r
8a\
=2
8f#\L
8B#\J
8c#\L
8a\J
=3
8f#\L
8c#\J
8d\L
8a\J
=4
8g#\L
[8b\J
16b\LL]
16a\
16g#\
16f#\JJ
=5
8f#\L
8e#\J
8r
8c#\
=6
8d/L
8A#/J
8B/L
8d#/J
=7
8e\L
8B#\J
8c#\L
8e#\J
=8
16f#\LL
16g#\
16a\
16a#\JJ
16b\LL
16dd\
16cc#\
16e#\JJ
=9
!!linebreak:original
4g#\
8f#\
8r
==
*-
